source/assets/svg-files/doctor-home.svg

<svg width="60" height="60" viewBox="0 0 60 60" fill="none" xmlns="http://www.w3.org/2000/svg">
<circle cx="30" cy="30" r="30" fill="#FFB2E3"/>
<path fill-rule="evenodd" clip-rule="evenodd" d="M31.0669 16.0669C32.11 15.0238 33.5247 14.4377 34.9999 14.4377C36.4751 14.4377 37.8899 15.0238 38.933 16.0669C39.9761 17.11 40.5621 18.5247 40.5621 19.9999C40.5621 21.4751 39.9761 22.8899 38.933 23.933L34.3749 28.491L26.5088 20.6249L31.0669 16.0669ZM25.183 20.183L30.183 15.183C31.4605 13.9055 33.1932 13.1877 34.9999 13.1877C36.8066 13.1877 38.5393 13.9055 39.8169 15.183C41.0944 16.4605 41.8121 18.1932 41.8121 19.9999C41.8121 21.8066 41.0944 23.5393 39.8169 24.8169L34.8194 29.8143C34.8186 29.8152 34.8177 29.816 34.8169 29.8169C34.816 29.8177 34.8152 29.8186 34.8143 29.8194L29.8169 34.8169C28.5393 36.0944 26.8066 36.8121 24.9999 36.8121C23.1932 36.8121 21.4605 36.0944 20.183 34.8169C18.9055 33.5393 18.1877 31.8066 18.1877 29.9999C18.1877 28.1932 18.9055 26.4605 20.183 25.183L25.183 20.183ZM33.491 29.3749L28.933 33.933C27.8899 34.9761 26.4751 35.5621 24.9999 35.5621C23.5247 35.5621 22.11 34.9761 21.0669 33.933C20.0238 32.8899 19.4377 31.4751 19.4377 29.9999C19.4377 28.5247 20.0238 27.11 21.0669 26.0669L25.6249 21.5088L33.491 29.3749Z" fill="#FF01C0"/>
<path d="M17.2543 47C17.1689 47 17.1076 46.9813 17.0703 46.944C17.0329 46.9067 17.0143 46.8453 17.0143 46.76V41.64C17.0143 41.5547 17.0329 41.4933 17.0703 41.456C17.1076 41.4187 17.1689 41.4 17.2543 41.4H18.8703C19.6169 41.4 20.2143 41.624 20.6623 42.072C21.1156 42.5147 21.3423 43.224 21.3423 44.2C21.3423 45.1813 21.1156 45.8933 20.6623 46.336C20.2143 46.7787 19.6169 47 18.8703 47H17.2543ZM18.8143 46.392C19.3529 46.392 19.7876 46.216 20.1183 45.864C20.4489 45.512 20.6143 44.9573 20.6143 44.2C20.6143 43.448 20.4489 42.896 20.1183 42.544C19.7876 42.1867 19.3529 42.008 18.8143 42.008H17.7183V46.392H18.8143ZM24.0968 47.048C23.4941 47.048 23.0328 46.8667 22.7128 46.504C22.3981 46.1413 22.2408 45.616 22.2408 44.928C22.2408 44.2347 22.4008 43.7013 22.7208 43.328C23.0408 42.9547 23.4994 42.768 24.0968 42.768C24.6834 42.768 25.1314 42.9547 25.4408 43.328C25.7554 43.696 25.9128 44.2293 25.9128 44.928C25.9128 45.6213 25.7581 46.1493 25.4488 46.512C25.1448 46.8693 24.6941 47.048 24.0968 47.048ZM24.0728 46.472C24.4621 46.472 24.7501 46.3467 24.9368 46.096C25.1234 45.84 25.2168 45.4453 25.2168 44.912C25.2168 44.3787 25.1234 43.984 24.9368 43.728C24.7501 43.472 24.4621 43.344 24.0728 43.344C23.6834 43.344 23.3981 43.472 23.2168 43.728C23.0354 43.9787 22.9448 44.3733 22.9448 44.912C22.9448 45.4453 23.0354 45.84 23.2168 46.096C23.3981 46.3467 23.6834 46.472 24.0728 46.472ZM28.7395 47.048C28.0781 47.048 27.5848 46.8773 27.2595 46.536C26.9341 46.1947 26.7715 45.6453 26.7715 44.888C26.7715 44.1253 26.9528 43.5813 27.3155 43.256C27.6781 42.9307 28.1288 42.768 28.6675 42.768C28.9768 42.768 29.2541 42.8053 29.4995 42.88C29.7448 42.9547 29.8675 43.04 29.8675 43.136C29.8675 43.2053 29.8355 43.296 29.7715 43.408C29.7128 43.5147 29.6595 43.568 29.6115 43.568C29.6008 43.568 29.5875 43.5653 29.5715 43.56C29.5608 43.5493 29.5448 43.5413 29.5235 43.536C29.2355 43.408 28.9448 43.344 28.6515 43.344C27.8781 43.344 27.4915 43.8533 27.4915 44.872C27.4915 45.4373 27.5848 45.8453 27.7715 46.096C27.9635 46.3467 28.2835 46.472 28.7315 46.472C29.0568 46.472 29.3581 46.4027 29.6355 46.264L29.7235 46.232C29.7768 46.232 29.8355 46.2853 29.8995 46.392C29.9635 46.4933 29.9955 46.576 29.9955 46.64C29.9955 46.704 29.9368 46.768 29.8195 46.832C29.7075 46.8907 29.5555 46.9413 29.3635 46.984C29.1715 47.0267 28.9635 47.048 28.7395 47.048ZM32.1263 47.048C31.8596 47.048 31.6196 46.968 31.4063 46.808C31.1983 46.6427 31.0943 46.3547 31.0943 45.944V43.392H30.6943C30.6409 43.392 30.6009 43.3733 30.5743 43.336C30.5476 43.2987 30.5343 43.2373 30.5343 43.152V43.056C30.5343 42.9707 30.5476 42.9093 30.5743 42.872C30.6009 42.8347 30.6409 42.816 30.6943 42.816H31.0943L31.1903 41.976C31.2063 41.8587 31.2916 41.8 31.4463 41.8H31.5263C31.6863 41.8 31.7663 41.8587 31.7663 41.976V42.816H32.4383C32.4969 42.816 32.5369 42.8347 32.5583 42.872C32.5849 42.9093 32.5983 42.9707 32.5983 43.056V43.152C32.5983 43.2373 32.5849 43.2987 32.5583 43.336C32.5369 43.3733 32.4969 43.392 32.4383 43.392H31.7663V45.88C31.7663 46.104 31.8036 46.2587 31.8783 46.344C31.9583 46.4293 32.0649 46.472 32.1983 46.472C32.2996 46.472 32.3743 46.4667 32.4223 46.456C32.4756 46.44 32.5156 46.432 32.5423 46.432C32.5903 46.432 32.6303 46.4827 32.6623 46.584C32.6943 46.68 32.7103 46.7547 32.7103 46.808C32.7103 46.968 32.5156 47.048 32.1263 47.048ZM35.2687 47.048C34.666 47.048 34.2047 46.8667 33.8847 46.504C33.57 46.1413 33.4127 45.616 33.4127 44.928C33.4127 44.2347 33.5727 43.7013 33.8927 43.328C34.2127 42.9547 34.6713 42.768 35.2687 42.768C35.8553 42.768 36.3033 42.9547 36.6127 43.328C36.9273 43.696 37.0847 44.2293 37.0847 44.928C37.0847 45.6213 36.93 46.1493 36.6207 46.512C36.3167 46.8693 35.866 47.048 35.2687 47.048ZM35.2447 46.472C35.634 46.472 35.922 46.3467 36.1087 46.096C36.2953 45.84 36.3887 45.4453 36.3887 44.912C36.3887 44.3787 36.2953 43.984 36.1087 43.728C35.922 43.472 35.634 43.344 35.2447 43.344C34.8553 43.344 34.57 43.472 34.3887 43.728C34.2073 43.9787 34.1167 44.3733 34.1167 44.912C34.1167 45.4453 34.2073 45.84 34.3887 46.096C34.57 46.3467 34.8553 46.472 35.2447 46.472ZM38.5673 47.016C38.354 47.016 38.2473 46.9573 38.2473 46.84V44.032C38.2473 43.68 38.2313 43.4293 38.1993 43.28C38.1673 43.1253 38.1513 43.04 38.1513 43.024C38.1513 42.96 38.202 42.9147 38.3033 42.888C38.4047 42.856 38.498 42.84 38.5833 42.84C38.658 42.84 38.7113 42.88 38.7433 42.96C38.7807 43.0347 38.8073 43.1147 38.8233 43.2C38.8447 43.2853 38.858 43.3413 38.8633 43.368C39.146 42.968 39.4553 42.768 39.7913 42.768C39.946 42.768 40.0607 42.7947 40.1353 42.848C40.2153 42.896 40.2553 42.9733 40.2553 43.08C40.2553 43.1707 40.2393 43.2667 40.2073 43.368C40.1753 43.464 40.138 43.512 40.0953 43.512C40.0687 43.512 40.0153 43.4987 39.9353 43.472C39.8607 43.44 39.7673 43.424 39.6553 43.424C39.5167 43.424 39.3833 43.472 39.2553 43.568C39.1273 43.6587 39.0153 43.7733 38.9193 43.912V46.84C38.9193 46.9573 38.8127 47.016 38.5993 47.016H38.5673ZM42.041 47.072C41.8117 47.072 41.5984 47.0453 41.401 46.992C41.209 46.9333 41.0544 46.864 40.937 46.784C40.825 46.704 40.769 46.632 40.769 46.568C40.769 46.5147 40.801 46.4347 40.865 46.328C40.9344 46.2213 40.9957 46.168 41.049 46.168C41.0597 46.168 41.1104 46.1973 41.201 46.256C41.2917 46.3147 41.4037 46.368 41.537 46.416C41.6757 46.464 41.8277 46.488 41.993 46.488C42.249 46.488 42.4437 46.4373 42.577 46.336C42.7104 46.2347 42.777 46.088 42.777 45.896C42.777 45.704 42.7104 45.5573 42.577 45.456C42.449 45.3547 42.249 45.2587 41.977 45.168C41.7477 45.0933 41.5557 45.0133 41.401 44.928C41.2464 44.8373 41.1184 44.712 41.017 44.552C40.9157 44.3867 40.865 44.176 40.865 43.92C40.865 43.696 40.921 43.496 41.033 43.32C41.1504 43.144 41.3077 43.008 41.505 42.912C41.7077 42.8107 41.937 42.76 42.193 42.76C42.465 42.76 42.7077 42.7947 42.921 42.864C43.1397 42.9333 43.249 43.0133 43.249 43.104C43.249 43.1733 43.217 43.264 43.153 43.376C43.0944 43.4827 43.041 43.536 42.993 43.536C42.977 43.5307 42.905 43.496 42.777 43.432C42.6544 43.3627 42.4837 43.328 42.265 43.328C42.057 43.328 41.8864 43.376 41.753 43.472C41.6197 43.568 41.553 43.6987 41.553 43.864C41.553 44.0187 41.5957 44.1387 41.681 44.224C41.7717 44.3093 41.937 44.392 42.177 44.472C42.593 44.6107 42.9104 44.7787 43.129 44.976C43.3477 45.1733 43.457 45.456 43.457 45.824C43.457 46.0587 43.393 46.272 43.265 46.464C43.1424 46.6507 42.9717 46.8 42.753 46.912C42.5397 47.0187 42.3024 47.072 42.041 47.072Z" fill="#FF01C0"/>
</svg>

<svg id="doctor" xmlns="http://www.w3.org/2000/svg" width="60" height="60" viewBox="0 0 60 60">
  <circle id="Ellipse_2" data-name="Ellipse 2" cx="30" cy="30" r="30" fill="#ffb2e3"/>
  <path id="Path_5" data-name="Path 5" d="M31.067,16.067a5.562,5.562,0,0,1,7.866,7.866l-4.558,4.558-7.866-7.866Zm-5.884,4.116,5-5a6.812,6.812,0,0,1,9.634,9.634l-5,5,0,0,0,0-5,5a6.812,6.812,0,1,1-9.634-9.634Zm8.308,9.192-4.558,4.558a5.562,5.562,0,1,1-7.866-7.866l4.558-4.558Z" fill="#ff01c0" fill-rule="evenodd"/>
  <path id="Path_6" data-name="Path 6" d="M17.254,47a.2.2,0,0,1-.24-.24V41.64a.2.2,0,0,1,.24-.24H18.87a2.422,2.422,0,0,1,1.792.672,2.872,2.872,0,0,1,.68,2.128,2.884,2.884,0,0,1-.68,2.136A2.438,2.438,0,0,1,18.87,47Zm1.56-.608a1.706,1.706,0,0,0,1.3-.528,3.026,3.026,0,0,0,0-3.32,1.693,1.693,0,0,0-1.3-.536h-1.1v4.384Zm5.282.656a1.748,1.748,0,0,1-1.384-.544,2.337,2.337,0,0,1-.472-1.576,2.389,2.389,0,0,1,.48-1.6,1.713,1.713,0,0,1,1.376-.56,1.646,1.646,0,0,1,1.344.56,2.942,2.942,0,0,1,.008,3.184A1.676,1.676,0,0,1,24.1,47.048Zm-.024-.576a1.007,1.007,0,0,0,.864-.376,2.643,2.643,0,0,0,0-2.368,1,1,0,0,0-.864-.384.976.976,0,0,0-.856.384,2.041,2.041,0,0,0-.272,1.184,2.065,2.065,0,0,0,.272,1.184A.985.985,0,0,0,24.073,46.472Zm4.667.576a1.955,1.955,0,0,1-1.48-.512,2.332,2.332,0,0,1-.488-1.648,2.1,2.1,0,0,1,.544-1.632,1.95,1.95,0,0,1,1.352-.488,2.855,2.855,0,0,1,.832.112q.368.112.368.256a.6.6,0,0,1-.1.272q-.088.16-.16.16a.132.132,0,0,1-.04-.008.1.1,0,0,0-.048-.024,2.13,2.13,0,0,0-.872-.192q-1.16,0-1.16,1.528a2.082,2.082,0,0,0,.28,1.224,1.134,1.134,0,0,0,.96.376,1.993,1.993,0,0,0,.9-.208l.088-.032q.08,0,.176.16a.506.506,0,0,1,.1.248q0,.1-.176.192a1.887,1.887,0,0,1-.456.152A2.873,2.873,0,0,1,28.74,47.048Zm3.387,0a1.17,1.17,0,0,1-.72-.24,1.045,1.045,0,0,1-.312-.864V43.392h-.4a.138.138,0,0,1-.12-.056.324.324,0,0,1-.04-.184v-.1a.324.324,0,0,1,.04-.184.138.138,0,0,1,.12-.056h.4l.1-.84q.024-.176.256-.176h.08q.24,0,.24.176v.84h.672a.126.126,0,0,1,.12.056.325.325,0,0,1,.04.184v.1a.325.325,0,0,1-.04.184.126.126,0,0,1-.12.056h-.672V45.88a.719.719,0,0,0,.112.464.418.418,0,0,0,.32.128,1.129,1.129,0,0,0,.224-.016.463.463,0,0,1,.12-.024q.072,0,.12.152a.768.768,0,0,1,.048.224Q32.71,47.048,32.126,47.048Zm3.142,0a1.748,1.748,0,0,1-1.384-.544,2.337,2.337,0,0,1-.472-1.576,2.389,2.389,0,0,1,.48-1.6,1.713,1.713,0,0,1,1.376-.56,1.646,1.646,0,0,1,1.344.56,2.942,2.942,0,0,1,.008,3.184A1.676,1.676,0,0,1,35.269,47.048Zm-.024-.576a1.007,1.007,0,0,0,.864-.376,2.643,2.643,0,0,0,0-2.368,1,1,0,0,0-.864-.384.976.976,0,0,0-.856.384,2.041,2.041,0,0,0-.272,1.184,2.065,2.065,0,0,0,.272,1.184A.985.985,0,0,0,35.245,46.472Zm3.323.544q-.32,0-.32-.176V44.032a4.062,4.062,0,0,0-.048-.752q-.048-.232-.048-.256,0-.1.152-.136a.936.936,0,0,1,.28-.048.165.165,0,0,1,.16.12.906.906,0,0,1,.08.24q.032.128.04.168a1.171,1.171,0,0,1,.928-.6.6.6,0,0,1,.344.08.25.25,0,0,1,.12.232.957.957,0,0,1-.048.288q-.048.144-.112.144a.654.654,0,0,1-.16-.04.713.713,0,0,0-.28-.048.658.658,0,0,0-.4.144,1.376,1.376,0,0,0-.336.344V46.84q0,.176-.32.176Zm3.474.056a2.448,2.448,0,0,1-.64-.08,1.722,1.722,0,0,1-.464-.208q-.168-.12-.168-.216a.545.545,0,0,1,.1-.24q.1-.16.184-.16a.789.789,0,0,1,.152.088,1.648,1.648,0,0,0,.336.16,1.386,1.386,0,0,0,.456.072.954.954,0,0,0,.584-.152.584.584,0,0,0,0-.88,2.027,2.027,0,0,0-.6-.288,3.36,3.36,0,0,1-.576-.24,1.126,1.126,0,0,1-.384-.376,1.193,1.193,0,0,1-.152-.632,1.094,1.094,0,0,1,.168-.6,1.172,1.172,0,0,1,.472-.408,1.518,1.518,0,0,1,.688-.152,2.353,2.353,0,0,1,.728.1q.328.1.328.24a.6.6,0,0,1-.1.272q-.088.16-.16.16-.024-.008-.216-.1a1.048,1.048,0,0,0-.512-.1.855.855,0,0,0-.512.144.458.458,0,0,0-.2.392.487.487,0,0,0,.128.36,1.4,1.4,0,0,0,.5.248,2.683,2.683,0,0,1,.952.5,1.083,1.083,0,0,1,.328.848,1.129,1.129,0,0,1-.192.64,1.313,1.313,0,0,1-.512.448A1.569,1.569,0,0,1,42.041,47.072Z" fill="#ff01c0"/>
</svg>
